X: 85
T:Star of Munster, The*****
M:C|
L:1/8
Q:140
R:reel
K:ADor
ed|c2 Ac BAGB|AGEF GEDG|EAAG ABcd| eaaf gedB|c2 Ac BAGB|AGEF GEDG|EAAG A
Bcd|ecdB A2:|
Bd|:eaab ageg|agbg agef|~g3a gfef|(3gfe af gfed|eaab ageg|agbg agef|~g3e
 ~a3 g|~b3 a gfed:|

